svgs/thin/saxophone-fire.svg

<svg xmlns="http://www.w3.org/2000/svg" viewBox="0 0 640 512"><!--! Font Awesome Pro 6.3.0 by @fontawesome - https://fontawesome.com License - https://fontawesome.com/license (Commercial License) Copyright 2023 Fonticons, Inc. --><path d="M166.1 182.5C167.5 183.5 169.1 184 170.7 184c2.5 0 4.969-1.188 6.531-3.375c7.875-11.16 12.22-24.75 12.19-39c-.5313-5.812-4.5-16.66-10.41-28.28C177.8 110.9 175.5 109.3 172.8 108.1C169.7 108.6 167.4 109.8 165.7 111.9L146.5 135.4L108.3 82.81c-1.5-2.094-3.906-3.344-6.469-3.344s-5 1.219-6.5 3.281C76.41 108.6 66.53 132.3 66.53 142.3c0 13.91 4.25 27.19 12.25 38.31C81.38 184.3 86.38 185 89.94 182.5c3.594-2.594 4.406-7.594 1.844-11.16c-5.969-8.312-9.25-18.59-9.25-29c0-3.531 4.75-19.03 19.38-41.09l37.75 52C141.1 155.3 143.4 156.5 145.9 156.6C147.9 156 150.8 155.5 152.3 153.6L169.1 131.9c2.344 5.812 3.375 9.531 3.469 10.41c0 10.25-3.312 20.56-9.281 29.03C161.6 175 162.5 180 166.1 182.5zM633 101.8l-26.56-26.41C599 68.03 589.2 64 578.8 64h-45.72c-18.78 0-36.44 7.25-49.75 20.41l-50.06 49.51l-11.57-11.57c-3.125-3.125-8.188-3.125-11.31 0s-3.125 8.188 0 11.31l11.51 11.51l-36.89 36.49l-11.3-11.3c-3.125-3.125-8.188-3.125-11.31 0s-3.125 8.188 0 11.31l11.24 11.24l-36.89 36.48l-11.04-11.04c-3.125-3.125-8.188-3.125-11.31 0s-3.125 8.188 0 11.31l10.98 10.98l-118.2 116.9c-6.031 5.875-15.53 6.438-22.19 1.312c-6.594-5.062-8.344-14.28-4.25-21.16l50-77.31c2.406-3.719 1.344-8.656-2.375-11.06C224.7 246.9 219.7 247.9 217.3 251.7l-50.16 77.56c-8.406 14.09-4.938 32.25 8.062 42.25C188 381.5 206.6 380.3 218.4 368.9l118.3-116.1l9.711 9.711C347.9 263.2 349.9 264 352 264s4.094-.7813 5.656-2.344c3.125-3.125 3.125-8.188 0-11.31l-9.648-9.648l36.89-36.48l9.445 9.445C395.9 215.2 397.9 216 400 216s4.094-.7813 5.656-2.344c3.125-3.125 3.125-8.188 0-11.31l-9.383-9.383l36.89-36.48l9.18 9.18C443.9 167.2 445.9 168 448 168s4.094-.7813 5.656-2.344c3.125-3.125 3.125-8.188 0-11.31l-9.117-9.117l49.99-49.45C504.8 85.59 518.5 80 533 80h45.72c6.188 0 12.03 2.406 16.44 6.719l26.59 26.44C624.9 116.3 624 119.7 623.4 121.1c-.4375 1.094-2.281 4.656-7.031 4.656h-63.03c-11.91 0-23.03 5.281-30.59 14.53l-242.7 299.7C266.5 455.3 230.4 496 163.1 496H163.3c-23.84 0-47.28-6.031-67.97-17.53C46.38 452.9 16 403.6 16 349.7c0-23.09 7.969-59.38 15.78-91.84c1.031-4.312-1.625-8.625-5.906-9.656C21.66 247.3 17.25 249.8 16.22 254.1C8.188 287.5 0 324.1 0 349.7c0 59.88 33.69 114.7 87.69 142.8C110.6 505.3 136.7 512 163.2 512H164c73.63 0 113.2-44.63 128.1-61.41l243.1-300.3c4.5-5.469 11.12-8.625 18.19-8.625h63.03c9.656 0 18.22-5.75 21.84-14.62C641.9 118.2 639.9 108.5 633 101.8zM8 224h240C252.4 224 256 220.4 256 216S252.4 208 248 208h-240C3.594 208 0 211.6 0 216S3.594 224 8 224zM29.19 183.6C33.38 182.2 35.66 177.7 34.28 173.5C30.97 163.4 29.22 152.8 29.09 142.3c0-30.81 30.69-82.88 72.22-123.3C116.5 33.66 130.3 49.38 142.2 65.81c1.438 2 3.75 3.188 6.219 3.281c3.031 .1562 4.844-1 6.438-2.906c6.531-7.938 13.44-15.5 20.62-22.59c29.34 30.12 51.44 76.38 51.44 98.66C226.8 152.8 225 163.4 221.7 173.5C220.3 177.7 222.6 182.2 226.8 183.6C227.7 183.9 228.5 184 229.3 184c3.375 0 6.5-2.125 7.594-5.5c3.844-11.69 5.875-23.84 6-36.16c0-27.56-25.44-81.88-61.97-115.8C177.9 23.78 173.1 23.75 170 26.62C162.8 33.41 155.8 40.66 149.1 48.28C136.5 32.03 122.3 16.53 106.7 2.125c-3.062-2.812-7.812-2.812-10.88 0c-47.94 44.53-82.75 103.5-82.75 140.3c.125 12.22 2.156 24.38 6 36.06C20.47 182.7 24.88 185 29.19 183.6zM72 376c0 8.836 7.164 15.1 15.1 15.1S104 384.8 104 376s-7.164-16-16-16S72 367.2 72 376zM104 280c0 8.836 7.164 16 16 16s16-7.164 16-16s-7.164-16-16-16S104 271.2 104 280z"/></svg>

<svg xmlns="http://www.w3.org/2000/svg" viewBox="0 0 640 512"><!-- Font Awesome Pro 6.0.0-alpha2 by @fontawesome - https://fontawesome.com License - https://fontawesome.com/license (Commercial License) --><path d="M166.094 182.531C167.5 183.531 169.125 184 170.719 184C173.219 184 175.687 182.812 177.25 180.625C185.125 169.469 189.469 155.875 189.438 141.625C188.906 135.812 184.938 124.969 179.031 113.344C177.812 110.906 175.469 109.281 172.781 108.969C169.719 108.594 167.375 109.781 165.719 111.875L146.5 135.438L108.25 82.812C106.75 80.719 104.344 79.469 101.781 79.469H101.75C99.188 79.469 96.781 80.687 95.281 82.75C76.406 108.625 66.531 132.312 66.531 142.344C66.531 156.25 70.781 169.531 78.781 180.656C81.375 184.281 86.375 185 89.938 182.5C93.531 179.906 94.344 174.906 91.781 171.344C85.813 163.031 82.531 152.75 82.531 142.344C82.531 138.812 87.281 123.312 101.906 101.25L139.656 153.25C141.094 155.281 143.406 156.5 145.906 156.562C147.875 156 150.75 155.5 152.312 153.625L170 131.938C172.344 137.75 173.375 141.469 173.469 142.344C173.469 152.594 170.156 162.906 164.188 171.375C161.625 175 162.5 180 166.094 182.531ZM633 101.75L606.438 75.344C599 68.031 589.156 64 578.75 64H533.031C514.25 64 496.594 71.25 483.281 84.406L433.225 133.912L421.656 122.344C418.531 119.219 413.469 119.219 410.344 122.344S407.219 130.531 410.344 133.656L421.85 145.162L384.961 181.648L373.656 170.344C370.531 167.219 365.469 167.219 362.344 170.344S359.219 178.531 362.344 181.656L373.586 192.898L336.695 229.383L325.656 218.344C322.531 215.219 317.469 215.219 314.344 218.344S311.219 226.531 314.344 229.656L325.32 240.633L207.156 357.5C201.125 363.375 191.625 363.938 184.969 358.812C178.375 353.75 176.625 344.531 180.719 337.656L230.719 260.344C233.125 256.625 232.063 251.688 228.344 249.281C224.656 246.875 219.688 247.938 217.281 251.656L167.125 329.219C158.719 343.312 162.188 361.469 175.188 371.469C188 381.5 206.625 380.344 218.375 368.906L336.633 251.945L346.344 261.656C347.906 263.219 349.938 264 352 264S356.094 263.219 357.656 261.656C360.781 258.531 360.781 253.469 357.656 250.344L348.008 240.695L384.898 204.211L394.344 213.656C395.906 215.219 397.938 216 400 216S404.094 215.219 405.656 213.656C408.781 210.531 408.781 205.469 405.656 202.344L396.273 192.961L433.164 156.477L442.344 165.656C443.906 167.219 445.938 168 448 168S452.094 167.219 453.656 165.656C456.781 162.531 456.781 157.469 453.656 154.344L444.539 145.227L494.531 95.781C504.812 85.594 518.5 80 533.031 80H578.75C584.938 80 590.781 82.406 595.188 86.719L621.781 113.156C624.938 116.25 624 119.688 623.438 121.062C623 122.156 621.156 125.719 616.406 125.719H553.375C541.469 125.719 530.344 131 522.781 140.25L282.937 436.875L280.125 439.969C266.531 455.312 230.438 496 163.969 496H163.25C139.406 496 115.969 489.969 95.281 478.469C46.375 452.938 16 403.625 16 349.719C16 326.625 23.969 290.344 31.781 257.875C32.813 253.562 30.156 249.25 25.875 248.219C21.656 247.25 17.25 249.844 16.219 254.125C8.188 287.5 0 324.969 0 349.719C0 409.594 33.688 464.375 87.688 492.562C110.562 505.281 136.688 512 163.219 512H164C237.625 512 277.219 467.375 292.094 450.594L535.188 150.344C539.688 144.875 546.312 141.719 553.375 141.719H616.406C626.063 141.719 634.625 135.969 638.25 127.094C641.875 118.188 639.875 108.469 633 101.75ZM8 224H248C252.406 224 256 220.406 256 216S252.406 208 248 208H8C3.594 208 0 211.594 0 216S3.594 224 8 224ZM29.188 183.594C33.375 182.219 35.656 177.688 34.281 173.5C30.969 163.375 29.219 152.844 29.094 142.344C29.094 111.531 59.781 59.469 101.312 19.031C116.5 33.656 130.25 49.375 142.188 65.812C143.625 67.812 145.938 69 148.406 69.094C151.438 69.25 153.25 68.094 154.844 66.188C161.375 58.25 168.281 50.688 175.469 43.594C204.812 73.719 226.906 119.969 226.906 142.25C226.781 152.844 225.031 163.375 221.719 173.5C220.344 177.688 222.625 182.219 226.812 183.594C227.656 183.875 228.5 184 229.312 184C232.688 184 235.812 181.875 236.906 178.5C240.75 166.812 242.781 154.656 242.906 142.344C242.906 114.781 217.469 60.469 180.938 26.594C177.875 23.781 173.094 23.75 170.031 26.625C162.781 33.406 155.75 40.656 149.062 48.281C136.5 32.031 122.312 16.531 106.719 2.125C103.656 -0.688 98.906 -0.688 95.844 2.125C47.906 46.656 13.094 105.625 13.094 142.437C13.219 154.656 15.25 166.812 19.094 178.5C20.469 182.688 24.875 185.031 29.188 183.594ZM72 376C72 384.836 79.164 392 88 392S104 384.836 104 376S96.836 360 88 360S72 367.164 72 376ZM104 280C104 288.836 111.164 296 120 296S136 288.836 136 280S128.836 264 120 264S104 271.164 104 280Z"/></svg>
